examples/domain-3d-lut.cube
TITLE "Domain 3D LUT"
DOMAIN_MIN 0.0 0.0 0.0
DOMAIN_MAX 0.1 0.1 0.1
LUT_3D_SIZE 2
1.0 0.0 0.0
1.0 0.0 0.0
1.0 0.0 0.0
1.0 0.0 0.0
1.0 0.0 0.0
1.0 0.0 0.0
1.0 0.0 0.0
0.0 0.0 1.0
