examples/example-1d-lut.cube
TITLE "Example 1D LUT"
LUT_1D_SIZE 4
0.000000 0.000000 0.000000
0.300000 0.100000 0.050000
0.600000 0.700000 0.200000
1.000000 1.000000 1.000000
